Origami/32x32/apps/staruml.svg

<svg width="32" height="32" version="1" xmlns="http://www.w3.org/2000/svg">
 <g transform="translate(-.49999991)">
  <path d="m16 2.9997517c-1.307197 0.018684-2.240232 0.8058961-2.677734 2.109375l0.01758-0.058594-2.054688 5.9492193h-6.925781c-0.015101-2.42e-4 -0.029821-2.42e-4 -0.044922 0-0.8271266 0.02681-1.5721928 0.512609-2.0976562 1.152344-1.136421 1.304496-0.8962089 3.657981 0.546875 4.630859l5.4453125 3.978516-2.1132813 6.566406c-0.00235 0.0073-0.00365 0.01418-0.00586 0.02148-0.322905 1.060759-0.019257 2.152805 0.7929687 2.900391 0.00587 0.0055 0.011571 0.01219 0.017578 0.01758 0.9760412 0.867686 2.3489216 0.977964 3.4511713 0.259766 0.02097-0.01357 0.04034-0.02832 0.06055-0.04297l5.587887-3.984372 5.587891 3.984375c0.02021 0.01466 0.03958 0.02941 0.06055 0.04297 1.10225 0.718198 2.475129 0.60792 3.451171-0.259766 6e-3 -0.0054 0.01167-0.01206 0.01758-0.01758 0.812225-0.747586 1.115873-1.839632 0.792968-2.900391-0.0022-0.0073-0.0035-0.01421-0.0059-0.02148l-2.113281-6.566406 5.445312-3.978516c1.443084-0.972878 1.683296-3.326363 0.546875-4.630859-0.525463-0.639735-1.270529-1.125534-2.097656-1.152344-0.0151-2.42e-4 -0.02982-2.42e-4 -0.04492 0h-6.925781l-2.054688-5.9492191 0.01758 0.058594c-0.437469-1.3034821-1.370504-2.0906942-2.677701-2.1093782z" style="opacity:.2"/>
  <path d="m16.000018 2c1.307197 0.018684 2.239445 0.8061022 2.676947 2.1095811l-0.016184-0.0587891 2.053899 5.949208h6.926348c0.0151-2.422e-4 0.0294-2.422e-4 0.0445 0 0.827127 0.02681 1.57294 0.512383 2.098403 1.152118l-13.783914 4.847954z" style="fill:#f74545"/>
  <path d="m25.098939 29.267329c6e-3 -0.0054 0.01297-0.01089 0.01888-0.01641 0.812226-0.747586 1.115875-1.840428 0.79297-2.901187-0.0022-0.0073-0.0044-0.01461-0.0068-0.02188l-2.113209-6.565268 5.445599-3.979903c1.443084-0.972878 1.683948-3.326074 0.547527-4.63057l-13.783919 4.847954s9.117798 13.250849 9.098921 13.267257z" style="fill:#707070"/>
  <path d="m6.8822121 29.250921c0.00587 0.0055 0.012871 0.01102 0.018878 0.01641 0.9760412 0.867686 2.347437 0.977965 3.4496869 0.259767 0.02097-0.01357 0.04182-0.02773 0.06203-0.04238l5.587211-3.984718 5.587201 3.984711c0.02021 0.01466 0.04106 0.02882 0.06203 0.04238 1.102251 0.718198 2.473646 0.607919 3.449688-0.259767 6e-3 -0.0054 0.01297-0.01089 0.01888-0.01641l-9.117799-13.250842z" style="fill:#7b4188"/>
  <path d="m15.999982 2c-1.307197 0.018684-2.239445 0.8061022-2.676947 2.1095811l0.016184-0.0587891-2.053899 5.949208h-6.9263479c-0.015101-2.422e-4 -0.0294-2.422e-4 -0.044501 0-0.8271266 0.02681-1.5729398 0.512383-2.0984032 1.152118l13.783914 4.847954z" style="fill:#ff9d45"/>
  <path d="m6.9010614 29.267329c-0.00601-0.0054-0.012974-0.01089-0.018878-0.01641-0.8122261-0.747586-1.1158751-1.840428-0.7929701-2.901187 0.00221-0.0073 0.00442-0.01461 0.00677-0.02188l2.1132056-6.565261-5.4455986-3.979903c-1.4430839-0.972878-1.6839479-3.326074-0.5475269-4.63057l13.783919 4.847954s-9.1177982 13.250849-9.0989206 13.267257z" style="fill:#ffd945"/>
  <path d="m16 2c-1.307197 0.018684-2.240232 0.8058961-2.677734 2.109375l0.017578-0.0585938-2.054688 5.9492188h-6.925781c-0.015101-2.422e-4 -0.0298209-2.422e-4 -0.0449219 0-0.8271266 0.02681-1.5721928 0.512609-2.0976562 1.152344-0.5940824 0.681946-0.8034401 1.648451-0.6699219 2.55664 0.0805089-0.574429 0.2932306-1.124237 0.6699219-1.55664 0.5254634-0.639735 1.2705296-1.125534 2.0976562-1.152344 0.015101-2.42e-4 0.029821-2.42e-4 0.044922 0h6.925781l2.054688-5.9492188-0.01758 0.058594c0.4375039-1.3034791 1.3705389-2.0906912 2.6777359-2.1093752 1.307197 0.018684 2.240265 0.8058929 2.677734 2.109375l-0.017578-0.0585938 2.054688 5.9492188h6.925781c0.0151-2.42e-4 0.02982-2.42e-4 0.04492 0 0.827127 0.02681 1.572193 0.512609 2.097656 1.152344 0.376691 0.432403 0.589413 0.982211 0.669922 1.55664 0.133518-0.908189-0.07584-1.874694-0.669922-2.55664-0.525461-0.639735-1.270527-1.125534-2.097654-1.152344-0.0151-2.422e-4 -0.02982-2.422e-4 -0.04492 0h-6.925781l-2.054688-5.9492188 0.01758 0.058594c-0.437506-1.3034791-1.370541-2.0906912-2.677738-2.1093752zm-8.0507812 18.572266-1.8535157 5.755859c-0.00235 0.0073-0.00365 0.01418-0.00586 0.02148-0.1364147 0.448129-0.1545077 0.901066-0.076172 1.332032 0.020171-0.110727 0.042543-0.22156 0.076172-0.332032 0.00221-0.0073 0.00351-0.01418 0.00586-0.02148l2.1132813-6.566406-0.2597656-0.189453zm16.101562 0-0.259765 0.189453 2.113281 6.566406c0.0024 0.0073 0.0037 0.01418 0.0059 0.02148 0.03363 0.110472 0.056 0.221305 0.07617 0.332032 0.07834-0.430966 0.06024-0.883903-0.07617-1.332032-0.0022-0.0073-0.0035-0.01421-0.0059-0.02148l-1.853516-5.755859z" style="fill:#ffffff;opacity:.2"/>
 </g>
</svg>

<svg xmlns="http://www.w3.org/2000/svg" width="32" height="32" version="1">
 <g transform="translate(-0.49999991,0)">
  <path style="opacity:0.2" d="m 16,2.9997517 c -1.307197,0.018684 -2.240232,0.8058961 -2.677734,2.109375 l 0.01758,-0.058594 -2.054688,5.9492193 -6.925781,0 c -0.015101,-2.42e-4 -0.029821,-2.42e-4 -0.044922,0 -0.8271266,0.02681 -1.5721928,0.512609 -2.0976562,1.152344 -1.136421,1.304496 -0.8962089,3.657981 0.546875,4.630859 l 5.4453125,3.978516 -2.1132813,6.566406 c -0.00235,0.0073 -0.00365,0.01418 -0.00586,0.02148 -0.322905,1.060759 -0.019257,2.152805 0.7929687,2.900391 0.00587,0.0055 0.011571,0.01219 0.017578,0.01758 0.9760412,0.867686 2.3489216,0.977964 3.4511713,0.259766 0.02097,-0.01357 0.04034,-0.02832 0.06055,-0.04297 L 16,26.499752 l 5.587891,3.984375 c 0.02021,0.01466 0.03958,0.02941 0.06055,0.04297 1.10225,0.718198 2.475129,0.60792 3.451171,-0.259766 0.006,-0.0054 0.01167,-0.01206 0.01758,-0.01758 0.812225,-0.747586 1.115873,-1.839632 0.792968,-2.900391 -0.0022,-0.0073 -0.0035,-0.01421 -0.0059,-0.02148 l -2.113281,-6.566406 5.445312,-3.978516 c 1.443084,-0.972878 1.683296,-3.326363 0.546875,-4.630859 -0.525463,-0.639735 -1.270529,-1.125534 -2.097656,-1.152344 -0.0151,-2.42e-4 -0.02982,-2.42e-4 -0.04492,0 l -6.925781,0 -2.054688,-5.9492191 0.01758,0.058594 C 18.240232,3.8056478 17.307197,3.0184357 16,2.9997517 Z"/>
  <path style="fill:#f74545" d="m 16.000018,2 c 1.307197,0.018684 2.239445,0.8061022 2.676947,2.1095811 L 18.660781,4.050792 20.71468,10 l 6.926348,0 c 0.0151,-2.422e-4 0.0294,-2.422e-4 0.0445,0 0.827127,0.02681 1.57294,0.512383 2.098403,1.152118 l -13.783914,4.847954 z"/>
  <path style="fill:#707070" d="m 25.098939,29.267329 c 0.006,-0.0054 0.01297,-0.01089 0.01888,-0.01641 0.812226,-0.747586 1.115875,-1.840428 0.79297,-2.901187 -0.0022,-0.0073 -0.0044,-0.01461 -0.0068,-0.02188 l -2.113209,-6.565268 5.445599,-3.979903 c 1.443084,-0.972878 1.683948,-3.326074 0.547527,-4.63057 l -13.783919,4.847954 c 0,0 9.117798,13.250849 9.098921,13.267257 z"/>
  <path style="fill:#7b4188" d="m 6.8822121,29.250921 c 0.00587,0.0055 0.012871,0.01102 0.018878,0.01641 0.9760412,0.867686 2.347437,0.977965 3.4496869,0.259767 0.02097,-0.01357 0.04182,-0.02773 0.06203,-0.04238 L 16.000018,25.5 l 5.587201,3.984711 c 0.02021,0.01466 0.04106,0.02882 0.06203,0.04238 1.102251,0.718198 2.473646,0.607919 3.449688,-0.259767 0.006,-0.0054 0.01297,-0.01089 0.01888,-0.01641 L 16.000018,16.000072 Z"/>
  <path style="fill:#ff9d45" d="M 15.999982,2 C 14.692785,2.018684 13.760537,2.8061022 13.323035,4.1095811 L 13.339219,4.050792 11.28532,10 4.3589721,10 c -0.015101,-2.422e-4 -0.0294,-2.422e-4 -0.044501,0 -0.8271266,0.02681 -1.5729398,0.512383 -2.0984032,1.152118 l 13.7839141,4.847954 z"/>
  <path style="fill:#ffd945" d="m 6.9010614,29.267329 c -0.00601,-0.0054 -0.012974,-0.01089 -0.018878,-0.01641 -0.8122261,-0.747586 -1.1158751,-1.840428 -0.7929701,-2.901187 0.00221,-0.0073 0.00442,-0.01461 0.00677,-0.02188 L 8.2091889,19.762591 2.7635903,15.782688 C 1.3205064,14.80981 1.0796424,12.456614 2.2160634,11.152118 l 13.7839186,4.847954 c 0,0 -9.1177982,13.250849 -9.0989206,13.267257 z"/>
  <path style="opacity:0.2;fill:#ffffff" d="M 16,2 C 14.692803,2.018684 13.759768,2.8058961 13.322266,4.109375 L 13.339844,4.0507812 11.285156,10 4.359375,10 C 4.344274,9.9997578 4.3295541,9.9997578 4.3144531,10 3.4873265,10.02681 2.7422603,10.512609 2.2167969,11.152344 1.6227145,11.83429 1.4133568,12.800795 1.546875,13.708984 1.6273839,13.134555 1.8401056,12.584747 2.2167969,12.152344 2.7422603,11.512609 3.4873265,11.02681 4.3144531,11 c 0.015101,-2.42e-4 0.029821,-2.42e-4 0.044922,0 l 6.925781,0 2.054688,-5.9492188 -0.01758,0.058594 C 13.759768,3.8058961 14.692803,3.018684 16,3 c 1.307197,0.018684 2.240265,0.8058929 2.677734,2.109375 L 18.660156,5.0507812 20.714844,11 l 6.925781,0 c 0.0151,-2.42e-4 0.02982,-2.42e-4 0.04492,0 0.827127,0.02681 1.572193,0.512609 2.097656,1.152344 0.376691,0.432403 0.589413,0.982211 0.669922,1.55664 0.133518,-0.908189 -0.07584,-1.874694 -0.669922,-2.55664 C 29.25774,10.512609 28.512674,10.02681 27.685547,10 c -0.0151,-2.422e-4 -0.02982,-2.422e-4 -0.04492,0 l -6.925781,0 -2.054688,-5.9492188 0.01758,0.058594 C 18.240232,2.8058961 17.307197,2.018684 16,2 Z M 7.9492188,20.572266 6.0957031,26.328125 c -0.00235,0.0073 -0.00365,0.01418 -0.00586,0.02148 -0.1364147,0.448129 -0.1545077,0.901066 -0.076172,1.332032 0.020171,-0.110727 0.042543,-0.22156 0.076172,-0.332032 0.00221,-0.0073 0.00351,-0.01418 0.00586,-0.02148 L 8.2089844,20.761719 7.9492188,20.572266 Z m 16.1015622,0 -0.259765,0.189453 2.113281,6.566406 c 0.0024,0.0073 0.0037,0.01418 0.0059,0.02148 0.03363,0.110472 0.056,0.221305 0.07617,0.332032 0.07834,-0.430966 0.06024,-0.883903 -0.07617,-1.332032 -0.0022,-0.0073 -0.0035,-0.01421 -0.0059,-0.02148 l -1.853516,-5.755859 z"/>
 </g>
</svg>
